packages/astro-components-stencil/src/icons/how-to-reg.svg

<svg xmlns="http://www.w3.org/2000/svg" viewBox="0 0 24 24"><g xmlns="http://www.w3.org/2000/svg" id="how-to-reg" fill-rule="nonzero">
            <path d="M12 20H3v-2c0-2.66 5.33-4 8-4 .32 0 .61.02 1 .06l-.84.82a2.997 2.997 0 00-.02 4.26L12 20zm-1-8c-2.21 0-4-1.79-4-4s1.79-4 4-4 4 1.79 4 4-1.79 4-4 4zm5.18 7.78c-.39.39-1.03.39-1.42 0l-2.07-2.09a.99.99 0 010-1.39l.01-.01a.984.984 0 011.4 0l1.37 1.37 4.43-4.46a.996.996 0 011.41 0l.01.01a.99.99 0 010 1.39l-5.14 5.18z"/>
        </g></svg>

<svg width="24" height="24" viewBox="0 0 24 24" fill="none" xmlns="http://www.w3.org/2000/svg">
<path fill-rule="evenodd" clip-rule="evenodd" d="M11 12C8.79 12 7 10.21 7 8C7 5.79 8.79 4 11 4C13.21 4 15 5.79 15 8C15 10.21 13.21 12 11 12ZM12 20H3V18C3 15.34 8.33 14 11 14C11.32 14 11.61 14.02 12 14.06L11.16 14.88C9.97 16.04 9.96 17.96 11.14 19.14L12 20ZM14.76 19.78C15.15 20.17 15.79 20.17 16.18 19.78L21.32 14.6C21.7 14.22 21.7 13.6 21.32 13.21L21.31 13.2C20.92 12.81 20.29 12.81 19.9 13.2L15.47 17.66L14.1 16.29C13.72 15.9 13.09 15.9 12.7 16.29L12.69 16.3C12.31 16.68 12.31 17.3 12.69 17.69L14.76 19.78Z" fill="black"/>
</svg>
